X:1     %Music
T:Glenlogie
B:Singing Together, Spring 1972, BBC Publications
F:http://www.folkinfo.org/songs
M:6/8     %Meter
L:1/8     %
K:C
AAG AAG |AAG E2 
w:Three score of no-bles rode up the King's hall, 
(c/d/) |ee(d/c/) cA(c/A/) |GEG A2
w:But_ bon-nie Glen--lo-gie's the_ flow'r of them all! 
 (c/d/) |ee(c/c/) dd(e/d/) |cA(G/E/) D2
w:With_ his milk-white_ steed and his_ bon-nie black_ e'e. 
 (c/A/) |GEC DCD |EcG A3 |]
w:"Glen--lo-gie. dear mo-ther, Glen-lo-gie for me." 